resources/svg/insert-image.svg

<svg xmlns="http://www.w3.org/2000/svg" fill="none" viewBox="0 0 14 14"><path fill="currentColor" fill-rule="evenodd" d="M3.82433 0.583225C4.83702 0.470346 5.90379 0.370117 7.00018 0.370117C8.09657 0.370117 9.16334 0.470346 10.176 0.583225C11.8787 0.773017 13.2459 2.13845 13.4285 3.84533C13.5364 4.85308 13.6302 5.91211 13.6302 7.00018C13.6302 8.08824 13.5364 9.14728 13.4285 10.155C13.2459 11.8619 11.8787 13.2273 10.176 13.4171C9.16334 13.53 8.09657 13.6302 7.00018 13.6302C5.90379 13.6302 4.83702 13.53 3.82433 13.4171C2.12162 13.2273 0.754434 11.8619 0.571818 10.155C0.464 9.14728 0.370117 8.08824 0.370117 7.00018C0.370117 5.91211 0.464 4.85308 0.571818 3.84533C0.754433 2.13845 2.12161 0.773017 3.82433 0.583225ZM10.5476 4.25202C10.5476 5.05084 9.89999 5.69841 9.10117 5.69841C8.30235 5.69841 7.65479 5.05084 7.65479 4.25202C7.65479 3.4532 8.30235 2.80563 9.10117 2.80563C9.89999 2.80563 10.5476 3.4532 10.5476 4.25202ZM4.35212 11.9632C3.19298 11.8165 2.26024 10.7572 2.13616 9.44026C2.07394 8.77978 2.01829 8.10734 1.989 7.42497C1.97839 7.17779 2.1543 6.96055 2.40051 6.9363C2.58826 6.91782 2.77674 6.90883 2.9654 6.90941C4.36972 6.87334 5.73964 7.40507 6.83073 8.4097C7.71409 9.22307 8.36816 10.3036 8.72275 11.5175C8.80594 11.8023 8.60152 12.0835 8.30581 12.1079C7.87457 12.1434 7.43854 12.1658 6.99839 12.1658C6.0971 12.1658 5.2131 12.0722 4.35212 11.9632ZM10.089 11.8595C9.95276 11.9064 9.81512 11.8107 9.78785 11.6693C9.64802 10.944 9.35778 10.0477 8.83071 9.26489C8.73177 9.11794 8.79834 8.91183 8.97124 8.87323C9.37828 8.78236 9.79324 8.73675 10.2102 8.73778C10.7158 8.73745 11.2189 8.80647 11.7086 8.9428C11.8215 8.9742 11.8935 9.08292 11.8829 9.19955C11.8756 9.27998 11.8681 9.36023 11.8606 9.44031C11.7528 10.584 11.0352 11.5334 10.089 11.8595Z" clip-rule="evenodd"></path></svg>

<svg xmlns="http://www.w3.org/2000/svg" fill="none" viewBox="0 0 14 14"><path fill="currentColor" fill-rule="evenodd" d="M3.824.583C4.837.47 5.904.37 7 .37c1.097 0 2.163.1 3.176.213a3.696 3.696 0 0 1 3.252 3.262c.108 1.008.202 2.067.202 3.155 0 1.088-.094 2.147-.202 3.155a3.696 3.696 0 0 1-3.252 3.262c-1.013.113-2.08.213-3.176.213s-2.163-.1-3.176-.213a3.696 3.696 0 0 1-3.252-3.262C.464 9.147.37 8.088.37 7c0-1.088.094-2.147.202-3.155A3.696 3.696 0 0 1 3.824.583Zm6.724 3.669a1.446 1.446 0 1 1-2.893 0 1.446 1.446 0 0 1 2.893 0Zm-6.196 7.711c-1.159-.146-2.092-1.206-2.216-2.523a39.527 39.527 0 0 1-.147-2.015.464.464 0 0 1 .412-.489 5.59 5.59 0 0 1 .564-.027c1.405-.036 2.775.496 3.866 1.5.883.814 1.537 1.895 1.892 3.108a.465.465 0 0 1-.417.59 15.7 15.7 0 0 1-1.308.059c-.9 0-1.785-.094-2.646-.203Zm5.737-.103c-.136.046-.274-.05-.301-.19-.14-.726-.43-1.622-.957-2.405-.1-.147-.033-.353.14-.392a5.62 5.62 0 0 1 2.738.07c.113.031.184.14.174.257l-.022.24c-.108 1.144-.826 2.093-1.772 2.42Z" clip-rule="evenodd"/></svg>
